X:1
T:Windsor Terrace [1]
M:C
L:1/8
S:Frank Kidson - Old English Country Dances  (1890)
Z:AK/Fiddler's Companion
K:Dmin
d2 Af e3A|dfed ^c3B|AdGd FdEd|Dde^c d4:||
affa g3g|affa g3f|efdf cfBf|Afge f2 z2|
af fg/a/ b/a/ b2a|gfed ^c3B|AdGd FdEd|Dde^c d4||

